img/box_logo_portugal.svg

<svg viewBox="0 0 120 120" xmlns="http://www.w3.org/2000/svg"><path d="m97.4666 47.4666h-24.9332v-24.9334l12.4666-12.5332h-50l12.4666 12.5334v24.9332h-24.9334l-12.5332-12.4666v50l12.5334-12.4666 24.9334-.0002v24.9334l-12.4668 12.5334h50l-12.4666-12.5334v-24.9334h24.9332l12.5334 12.4668v-50zm.0334 18.861081h-31.172319v31.172319h-12.655362v-31.172319h-31.172319v-12.655362h31.172319v-31.172319h12.655362v31.172319h31.172319z" fill="#f0f0f0"/></svg>

<?xml version="1.0" encoding="UTF-8"?>
<svg viewBox="0 0 120 120" version="1.1" xmlns="http://www.w3.org/2000/svg" xmlns:xlink="http://www.w3.org/1999/xlink">
    <title>marco historico portugal / logo grande copy</title>
    <g id="marco-historico-portugal-/-logo-grande-copy" stroke="none" stroke-width="1" fill="none" fill-rule="evenodd">
        <path d="M97.4666,47.4666 L72.5334,47.4666 L72.5334,22.5332 L85,10 L35,10 L47.4666,22.5334 L47.4666,47.4666 L22.5332,47.4666 L10,35 L10,85 L22.5334,72.5334 L47.4668,72.5332 L47.4668,97.4666 L35,110 L85,110 L72.5334,97.4666 L72.5334,72.5332 L97.4666,72.5332 L110,85 L110,35 L97.4666,47.4666 Z M97.5,66.327681 L66.327681,66.327681 L66.327681,97.5 L53.672319,97.5 L53.672319,66.327681 L22.5,66.327681 L22.5,53.672319 L53.672319,53.672319 L53.672319,22.5 L66.327681,22.5 L66.327681,53.672319 L97.5,53.672319 L97.5,66.327681 Z" id="Shape-Copy-6" fill="#F0F0F0" fill-rule="nonzero"></path>
    </g>
</svg>
